src/assets/svg/icons/fa/nuevos/classic/light/coin classic light.svg

<svg xmlns="http://www.w3.org/2000/svg" viewBox="0 0 512 512"><!--! Font Awesome Pro 6.4.0 by @fontawesome - https://fontawesome.com License - https://fontawesome.com/license (Commercial License) Copyright 2023 Fonticons, Inc. --><path d="M256 320c66.2 0 124.6-15.2 165.3-38.1C463 258.5 480 231.1 480 208s-17-50.5-58.7-73.9C380.6 111.2 322.2 96 256 96s-124.6 15.2-165.3 38.1C49 157.5 32 184.9 32 208s17 50.5 58.7 73.9C131.4 304.8 189.8 320 256 320zm-80 24.8l0 64.3c20 3.6 41.5 5.8 64 6.6l0-64c-22.2-.8-43.7-3.1-64-6.9zm-32-7.3c-17.2-4.7-33.2-10.5-48-17.1l0 64.7c14.2 6.5 30.3 12.3 48 17l0-64.6zM32 277.8L32 320c0 12.9 8.5 29.9 32 46.8l0-63.6c-12.2-7.8-23-16.3-32-25.5zm240 74l0 64c22.5-.7 44-3 64-6.6l0-64.3c-20.3 3.8-41.8 6.1-64 6.9zm208-74c-9 9.2-19.8 17.7-32 25.5l0 63.6c23.5-16.9 32-34 32-46.8l0-42.2zM368 337.5l0 64.6c17.7-4.7 33.8-10.5 48-17l0-64.7c-14.8 6.7-30.8 12.4-48 17.1zM0 208C0 128.5 114.6 64 256 64s256 64.5 256 144l0 32 0 80c0 70.7-114.6 128-256 128S0 390.7 0 320l0-80 0-32zm256-56c-47.1 0-89.1 7.4-118.7 18.8c-14.8 5.7-25.8 12.2-32.7 18.5C97.7 195.7 96 200.6 96 204s1.7 8.3 8.6 14.7c6.9 6.3 17.8 12.8 32.7 18.5C166.9 248.6 208.9 256 256 256s89.1-7.4 118.7-18.8c14.8-5.7 25.8-12.2 32.7-18.5c6.9-6.3 8.6-11.3 8.6-14.7s-1.7-8.3-8.6-14.7c-6.9-6.3-17.8-12.8-32.7-18.5C345.1 159.4 303.1 152 256 152zm192 52c0 15.4-8.2 28.3-19 38.3c-10.9 9.9-25.7 18.2-42.7 24.7c-34.1 13.2-80.2 21-130.2 21s-96.1-7.8-130.2-21c-17-6.6-31.9-14.8-42.7-24.7c-10.9-9.9-19-22.9-19-38.3s8.2-28.3 19-38.3c10.9-9.9 25.7-18.2 42.7-24.7c34.1-13.2 80.2-21 130.2-21s96.1 7.8 130.2 21c17 6.6 31.9 14.8 42.7 24.7c10.9 9.9 19 22.9 19 38.3z"/></svg>

<svg xmlns="http://www.w3.org/2000/svg" viewBox="0 0 512 512"><path d="M428.1 242.3C418.1 252.2 403.2 260.4 386.2 267C352.1 280.2 306.1 288 255.1 288C205.9 288 159.9 280.2 125.8 267C108.8 260.4 93.92 252.2 83.04 242.3C72.15 232.3 63.1 219.4 63.1 204C63.1 188.6 72.15 175.7 83.04 165.7C93.92 155.8 108.8 147.6 125.8 140.1C159.9 127.8 205.9 120 255.1 120C306.1 120 352.1 127.8 386.2 140.1C403.2 147.6 418.1 155.8 428.1 165.7C439.8 175.7 448 188.6 448 204C448 219.4 439.8 232.3 428.1 242.3V242.3zM137.3 170.8C122.5 176.6 111.6 183 104.6 189.3C97.7 195.7 96 200.6 96 204C96 207.4 97.7 212.3 104.6 218.7C111.6 224.1 122.5 231.4 137.3 237.2C166.9 248.6 208.9 256 256 256C303.1 256 345.1 248.6 374.7 237.2C389.5 231.4 400.4 224.1 407.4 218.7C414.3 212.3 416 207.4 416 204C416 200.6 414.3 195.7 407.4 189.3C400.4 183 389.5 176.6 374.7 170.8C345.1 159.4 303.1 152 256 152C208.9 152 166.9 159.4 137.3 170.8zM0 208C0 128.5 114.6 64 256 64C397.4 64 512 128.5 512 208V320C512 390.7 397.4 448 256 448C114.6 448 0 390.7 0 320V208zM421.3 281.9C463 258.5 480 231.1 480 208C480 184.9 463 157.5 421.3 134.1C380.6 111.2 322.2 95.1 256 95.1C189.8 95.1 131.4 111.2 90.67 134.1C48.96 157.5 32 184.9 32 207.1C32 231.1 48.96 258.5 90.67 281.9C131.4 304.8 189.8 319.1 256 319.1C322.2 319.1 380.6 304.8 421.3 281.9V281.9zM176 409.2C196 412.7 217.5 414.1 240 415.7V351.7C217.8 350.1 196.3 348.6 176 344.8V409.2zM144 337.5C126.8 332.8 110.8 327.1 96 320.4V385.1C110.2 391.7 126.3 397.4 144 402.1V337.5zM32 320C32 332.9 40.51 349.9 64 366.8V303.2C51.78 295.5 41.03 286.9 32 277.8V320zM272 351.7V415.7C294.5 414.1 315.1 412.7 336 409.2V344.8C315.7 348.6 294.2 350.1 272 351.7V351.7zM480 277.8C470.1 286.9 460.2 295.5 448 303.2V366.8C471.5 349.9 480 332.9 480 320V277.8zM368 402.1C385.7 397.4 401.8 391.7 416 385.1V320.4C401.3 327.1 385.2 332.8 368 337.5V402.1z"/></svg>
